X:582
T:Kenderbeck's
S:Bruce & Emmett's Drummers and Fifers Guide (1862), p. 58
M:2/4
L:1/16
Q:1/4=100
K:D
%%MIDI program 72
%%MIDI transpose 8
%%MIDI ratio 3 1
ag|(fa).g.f (eg).f.e|d2d2d2 ed|(ce).d.c (Bd).c.B|.A2.A2.A2 BA|(GB).A.G (FA).G.F|
.E.F.G.A .B.c.d.e|(fa).g.f (eg).f.e|.d2.d2.d2::AG|FAdA fdAF|EAcA ecAG|
FAdf af(ba)|gfed cBAG|FAdA fdAF|EAcA ecAG|FAdf (ag).e.c|d2d2d2:|

